X:1
T:Pisces sont homines
T:Daniel Friderici
T:Source : Bicinia sacra---Rostock---J.Richelius---1642. Editor : André Vierendeels (11/07/17). 
T:Notes : Original clefs : G2, G2 Editorial accidentals above the staff
T:Pisces sont homines
T:©
T:©
T:©
C:Daniel Friderici
Z:©
%%score [ 1 2 ]
L:1/8
Q:1/4=120
M:2/2
K:F
V:1 treble nm="Soprano 1" snm="S 1"
V:2 treble nm="Soprano 2" snm="S 2"
V:1
 F4 F2 G2 | A2 B2 c4 | z4 F4 | F2 G2 A2 B2 | c6 d2 | e2 c2 e2 f2 | g4 z2 d2 | e2 c2 e2 f2 | g8 | %9
w: Pi- sces sunt|ho- mi- nes,|pi-|sces sunt ho- mi-|nes, pi-|sces sunt ho- mi-|nes, pi-|sces sunt ho- mi-|nes,|
 z4 f4- | f4 e4 | d6 c2 | B2 A2 G2 F2 | G2 A2 B4 | A4 FGAB | c3 B/A/ f3 e/d/ | e3 d/c/ d3 c/B/ | %17
w: Mun-|* dus|ma- *|||re, re- * * *|||
 c3 B/A/ B3 A/G/ | A3 G/F/ G3 F/E/ | F3 G/A/ B3 A/G/ | A3 B/c/ d3 c/B/ | c3 d/e/ f3 f | e4 d4 | %23
w: ||||* * * * te-|que ver-|
[M:2/4] c4 :: z2 c2 |[M:2/2] A2 F2 z2 f2 | d2 B2 z2 G2 | g2 e2 z2 g2 | e2 c2 z2 e2 | f3 e d2 cB | %30
w: bum:|Ca-|pto- res, ca-|pto- res, ca-|pto- res, ca-|pto- res, ca-|pto- * * * *|
 cdec d4 | e2 f4 c2 | d6 d2 | g4 f4- | f4 e4 | d6 c2 | B2 A2 G4 | F8 :| %38
w: |res, qui te|Cae- li-|ca ver-|* ba|do- *||cent.|
V:2
 z8 | F4 F2 G2 | A2 B2 c4 | z4 F4 | F2 G2 A2 B2 | c6 d2 | e2 c2 e2 f2 | g6 d2 | e2 c2 e2 f2 | %9
w: |Pi- sces sunt|ho- mi- nes,|pi-|sces sunt ho- mi-|nes, pi-|sces sunt ho- mi-|nes, pi-|sces sunt ho- mi-|
 g4 a4- | a4 g4 | f6 e2 | d2 c2 B2 A2 | G8 | F4 f3 e/d/ | e3 d/c/ d3 c/B/ | c3 B/A/ B3 A/G/ | %17
w: nes, Mun-|* dus|ma- *|||re, re- * *|||
 A3 G/F/ G3 F/E/ | F3 G/A/ B3 A/G/ | A3 B/c/ d3 c/B/ | c3 d/e/ f3 e/d/ | e3 d/c/ d3 d | %22
w: ||||* * * * te-|
 A2 c3 =B/A/ B2 |[M:2/4] c4 :: z4 |[M:2/2] z2 c2 A2 F2 | z2 f2 d2 B2 | z2 c2 g2 e2 | z2 g2 e2 c2 | %29
w: que ver- * * *|bum:||Ca- pto- res,|ca- pto- res,|ca- pto- res,|ca- pto- res,|
 z2 B2 B2 AG | AB c3 =B/A/ B2 | c2 d4 e2 | f6 f2 | e4 d4- | d4 c4 | B6 A2 | G2 F4 E2 | F8 :| %38
w: ca- pto- * *||res, qui te|Cae- li-|ca ver-|* ba|do- *||cent.|

